X: 139
T: Ayrılık Yaman Kelime
C: Sadettin Kaynak
O: Turkey
F: http://compmusic.upf.edu/node/140
N: segah--sarki--duyek--ayrilik_yaman--sadettin_kaynak
N: makam= segah
N: form= sarki
N: usul= duyek = 8/4
M: 8/4
L: 1/16
K: C _1/4B _1/4e ^f 
Q: 1/4=132
%%MIDI tuningsystem comma53
G2 B4 cB ^A4 c4  | B2 d4 ed c4 e4  | \
w:  ARANAĞME  |   | 
d2 f4 gf e4 g4  | f3/2g/ ag f4 e3/2f/ gf e4  | 
w:   |   | 
d3/2e/ =fe d2 ed cd cd e4  | d2 a2 g2 =f2 e2 d2 c2 B2  | \
w:   |   | 
=f3e d3c B3^A G2 A2  | 
w:   | 
B16  | G2 B4 cB ^A4 c4  | B2 d4 ed c4 e4  | \
w:   |  ARANAĞME  |   | 
d2 f4 gf e4 g4  | f3/2g/ ag f4 e3/2f/ gf e4  | 
w:   |   | 
d3/2e/ =fe d2 ed cd cd e4  | d2 a2 g2 =f2 e2 d2 c2 B2  | \
w:   |   | 
=f3e d3c B3^A G2 A2  | 
w:   | 
B16  | z2 d4 e2 d4 B4  | c8 c2 B2 d2 cB  | \
w:   |  Ay rı lık  ya  |  man  *  *  ke li  | 
B8 G^A G2 B4  | z2 d4 e2 d4 B4  | 
w:  me   SAZ  |  Ben zet mek  az  | 
c8 c2 B2 d2 cB  | B8 cd B2 d4  | d2 g6 f4 e4  | \
w:  dır  *  *  ö lü  |  me   SAZ  |  Kim  uğ rar sa   | 
a6 g2 =f2 fe d4  | 
w:  bu  *  zu lü *  me    | 
e2 =f6 e3/2f/ gf e4  | d2 e6 d3/2e/ =fe d4  | \
w:  A man  SAZ  |  a man  SAZ  | 
^c2 d6 d4 =c2 B2  | z2 B4 d2 c4 B4  | 
w:  a man   |  Gün dü zü  o  | 
=f3e d3c B3^A G4  | ^A2 B8-B2 z4  | G2 B4 cB ^A4 c4  | \
w:  lur *  *  *  muş   |  ge ce    |  ARANAĞME  | 
B2 d4 ed c4 e4  | 
w:   | 
d2 f4 gf e4 g4  | f3/2g/ ag f4 e3/2f/ gf e4  | \
w:   |   | 
d3/2e/ =fe d2 ed cd cd e4  | 
w:   | 
d2 a2 g2 =f2 e2 d2 c2 B2  | =f3e d3c B3^A G2 A2  | B16  | \
w:   |   |   | 
G2 B4 cB ^A4 c4  | 
w:  ARANAĞME  | 
B2 d4 ed c4 e4  | d2 f4 gf e4 g4  | f3/2g/ ag f4 e3/2f/ gf e4  | 
w:   |   |   | 
d3/2e/ =fe d2 ed cd cd e4  | d2 a2 g2 =f2 e2 d2 c2 B2  | \
w:   |   | 
=f3e d3c B3^A G2 A2  | 
w:   | 
B16  | z2 b4 c'2 b4 ^a4  | g3f g2 ^a2 b3c' ba b2  | \
w:   |  Sol du  mu  neş  |  en  *  he ve sin   SAZ  | 
z2 b4 c'2 b4 ^a4  | g3f g2 ^a2 b3c' ba g2  | 
w:  Ses le ni rim   |  gel *  mez  se sin   SAZ  | 
f2 g6 f4 e4  | a6 g2 =f2 fe d4  | e2 =f4 f2 e3/2f/ gf e4  | \
w:  Du dak la rım  |  da  *  ne fe *  sin    |  A man   | 
d2 e6 d3/2e/ =fe d4  | 
w:  a man   | 
^c2 d8-d2 =c2 B2  | z2 B4 d2 c4 B4  | \
w:  a man   |  Öz le rim  se  | 
=f3e d3c B3^A G2 A2  | B12 z4  | |


